svgs/light/bus.svg

<svg xmlns="http://www.w3.org/2000/svg" viewBox="0 0 576 512"><!--! Font Awesome Pro 6.1.1 by @fontawesome - https://fontawesome.com License - https://fontawesome.com/license (Commercial License) Copyright 2022 Fonticons, Inc. --><path d="M336 64C344.8 64 352 71.16 352 80C352 88.84 344.8 96 336 96H240C231.2 96 224 88.84 224 80C224 71.16 231.2 64 240 64H336zM184 352C184 365.3 173.3 376 160 376C146.7 376 136 365.3 136 352C136 338.7 146.7 328 160 328C173.3 328 184 338.7 184 352zM392 352C392 338.7 402.7 328 416 328C429.3 328 440 338.7 440 352C440 365.3 429.3 376 416 376C402.7 376 392 365.3 392 352zM72.3 69.88C96.5 40.06 164.2 0 288 0C420.6 0 481.2 39.95 504.2 70.2C510.2 78.14 512 87.36 512 95.15V384C512 407.7 499.1 428.4 480 439.4V496C480 504.8 472.8 512 464 512C455.2 512 448 504.8 448 496V448H128V496C128 504.8 120.8 512 112 512C103.2 512 96 504.8 96 496V439.4C76.87 428.4 64 407.7 64 384V95.15C64 87.42 65.79 77.91 72.3 69.88V69.88zM288 32C170.1 32 113.2 70.22 97.15 90.05C96.77 90.51 96 91.94 96 95.15V128H480V95.15C480 92 479.2 90.3 478.7 89.53C463.9 70.12 414.8 32 288 32zM272 256V160H96V256H272zM304 256H480V160H304V256zM128 416H448C465.7 416 480 401.7 480 384V288H96V384C96 401.7 110.3 416 128 416zM32 240C32 248.8 24.84 256 16 256C7.164 256 0 248.8 0 240V144C0 135.2 7.164 128 16 128C24.84 128 32 135.2 32 144V240zM576 240C576 248.8 568.8 256 560 256C551.2 256 544 248.8 544 240V144C544 135.2 551.2 128 560 128C568.8 128 576 135.2 576 144V240z"/></svg>

<svg xmlns="http://www.w3.org/2000/svg" viewBox="0 0 576 512"><!--! Font Awesome Pro 6.4.2 by @fontawesome - https://fontawesome.com License - https://fontawesome.com/license (Commercial License) Copyright 2023 Fonticons, Inc. --><path d="M288 32C170.1 32 113.2 70.2 97.2 90c-.4 .5-1.2 1.9-1.2 5.1V128H480V95.2c0-3.1-.8-4.9-1.3-5.6C463.9 70.1 414.8 32 288 32zM96 256H272V160H96v96zm208 0H480V160H304v96zM96 384c0 17.7 14.3 32 32 32H367.2 448c17.7 0 32-14.3 32-32V288H96v96zM72.3 69.9C96.5 40.1 164.2 0 288 0C420.6 0 481.2 40 504.2 70.2c6 7.9 7.8 17.2 7.8 25V384c0 23.7-12.9 44.4-32 55.4V496c0 8.8-7.2 16-16 16s-16-7.2-16-16V448H367.2 128l0 48c0 8.8-7.2 16-16 16s-16-7.2-16-16V439.4C76.9 428.4 64 407.7 64 384V95.2c0-7.7 1.8-17.2 8.3-25.3zM136 352a24 24 0 1 1 48 0 24 24 0 1 1 -48 0zm280-24a24 24 0 1 1 0 48 24 24 0 1 1 0-48zM240 64h96c8.8 0 16 7.2 16 16s-7.2 16-16 16H240c-8.8 0-16-7.2-16-16s7.2-16 16-16zM32 144v96c0 8.8-7.2 16-16 16s-16-7.2-16-16V144c0-8.8 7.2-16 16-16s16 7.2 16 16zm544 0v96c0 8.8-7.2 16-16 16s-16-7.2-16-16V144c0-8.8 7.2-16 16-16s16 7.2 16 16z"/></svg>
